X:1
T:Title
%%score { ( 1 3 5 ) | ( 2 4 ) }
L:1/8
M:4/4
K:Eb
V:1 treble nm="Grand Piano"
V:3 treble 
V:5 treble 
V:2 bass 
V:4 bass 
V:1
 z4 z2[Q:1/4=100] [GB]2 | [Ge]3 [Ge] [_Gd]2 [Gc]2 | [GB]2 z D G2 G2 | [FG]2 G2 G2 G2 | %4
[M:3/4] G6[K:bass] |[M:1/4][K:treble] [EG]2 |[M:4/4] [Ge]3 [Ge] [Gd]2 [Gc]2 | [GB]2 A2 G2 F2 | %8
 F2 G=A d2 c2 |[M:3/4] B6 |[M:1/4] [DAB]2 |[M:4/4] [DAB]3 [DAB] [EAc]2 [FAd]2 | %12
 [EGe]3 [B,EG] [B,EG]2 [=B,FG]2 | [=B,FG]2 [B,FG]2 [CF=A]2 [DF=B]2 |[M:3/4] c6 |[M:1/4] [CEG]2 | %16
[M:4/4] F2 A2 d2 c2 | B2 B2 B2 G2 | [EGB]3 [EB] [DB]2 [B,DA]2 |[M:3/4] [B,G]2- [B,-DG-]2 [B,EG]2 | %20
[M:1/4] B2 |[M:4/4] e2 [Ge]2 [Ge]2 [Fd]2 |[M:9/8] [Ec]2 [=EB]- [EB] [A,CA]2- [A,CA] [B,EG]2 | %23
[M:4/4] [=A,EF]2 [A,EF]2 [_A,EF]2 [A,EF]2 |[M:25/32] z25/4 |[M:5/16] z/ z/ z d/ | %26
[M:4/4] e4- e3/2-e/4 z/4 z2 | B6 z2 | (3:2:2c3 B3 z4 | (9:8:8F2- [EF-]2 [EF-]/ [DF]3/2B/c/-c3/2d/ | %30
 e4- e3/2-e/4 z/4 z2 |[M:3/4] B6 |[M:1/4] G2 |[M:4/4] z4 (3:2:2d3 c3 | %34
 (9:8:8B2- [EB-]2 [EB-]/ [FB]3/2B/c/-c3/2d/ | e4- e3/2-e/4 z/4 z2 | %36
[M:35/32] c3/2-c/4- c4- c/ z/4 d3/2-d/4 z/ |[M:19/16] B/-B/-B-<BBcf/-f/-f/-f/-f/-f-<f | %38
[M:7/8] e-e-e- e- e3 |] %39
V:2
 z4 z2 [E,E]2 | [E,B,]3 [E,B,] [E,=A,]2 [E,A,]2 | [E,B,]2 .[E,C]2 [E,E]2 [E,CE]2 | %3
 [D,=B,]2[K:treble] [G,B,F]2 [=A,CF]2 [B,DF]2 |[M:3/4] [CE]6 |[M:1/4][K:bass] [C,C]2 | %6
[M:4/4] [C,C]3 [C,C] [D,=B,]2 [E,C]2 | [=E,_D]2 [F,CF]2 [G,CE]2 [A,CE]2 | %8
 [=A,CE]2 [CE]-[F,CE] [F,A,F]2 [F,E]2 |[M:3/4] F,2 z2 z2 |[M:1/4] B,,2 |[M:4/4] B,3 B, B,2 B,2 | %12
 E,3 E, E,2 E,2 | G,,2 G,2 G,2 G,2 |[M:3/4] z2 A,2 G,2 |[M:1/4] C,2 | %16
[M:4/4] [F,A,C]2 [F,A,C]2 [_G,=A,E]2 [G,A,E]2 | [G,B,E]2 [F,A,D]2 [E,G,E]2 [E,B,E]2 | %18
 B,,3 [B,,G,] [B,,F,]2 B,,2 |[M:3/4] E,2 F,2 G,2 |[M:1/4][K:treble] [A,B,F]2 | %21
[M:4/4] [G,B,E]2[K:bass] [E,B,]2 [G,=B,]2 [G,B,]2 |[M:9/8] [C,C]2 [C,G,]- [C,G,] F,2- F, C,2 | %23
[M:4/4] C,2 C,2 =B,,2 B,,2 |[M:25/32] B,,-B,,/4-B,,-B,,/4- B,,3- B,,3/4- | %25
[M:5/16] B,,/4 z/4 z/ z/ z |[M:4/4] z2 (3:2:2[E,B,]2 [E,B,] [E,B,]3/2-[E,B,]/4 z/4 z2 | %27
 z2 (3:2:2[E,G,]2 [E,G,] E,2- [E,G,-B,-E-]/<[G,B,E]/-[G,B,E] | (3:2:2[A,E]3 [G,B,E]3 z4 | %29
 (5:4:5[B,,B,]2 [B,,B,]/ [C,=A,]/-[C,A,]3/2[C,A,]/ [B,,B,]3/2-[B,,B,]/4 z/4 z2 | %30
 z2 (3:2:2[E,B,]2 [E,B,] [E,B,]3/2-[E,B,]/4 z/4 z2 |[M:3/4] z2 (3:2:2[E,G,]2 [E,G,] G,2- | %32
[M:1/4] [E,-G,B,-E-]/<[E,B,E]/-[E,B,E] |[M:4/4] (3:2:2[F,B,D]3 [F,B,G]3 z4 | %34
 z4 (5:4:5[B,,A,]2[K:treble] [B,DA]/ [B,EA]/-[B,EA]3/2[B,FA]/ | %35
 (5:4:5[E,E]2 [E,B,]/ [E,B,]/-[E,B,]3/2[E,B,]/ z4 | %36
[M:35/32] A,3/2[A,C]3/4 z z/4 (3:2:4[A,C]3/4-[A,C]/8[A,C]3/2-[A,C]/4-[A,C]/->[_G,-A,=A,-CE-]/[G,A,E]/4[G,A,E]3/2[G,A,E]3/4 | %37
[M:19/16] [G,B,E]/-[G,B,E]/-[G,B,E]-<[G,B,E][G,B,E][F,=A,E][B,,DA]/-[B,,DA]/-[B,,DA]/-[B,,DA]/-[B,,DA]/-[B,,DA]-<[B,,DA] | %38
[M:7/8] z2 C2 B,3 |] %39
V:3
 x8 | x8 | z2 [FA]2 z4 | x8 |[M:3/4] z2[K:bass] G,E, C,2 |[M:1/4][K:treble] x2 |[M:4/4] x8 | x8 | %8
 x8 |[M:3/4] D2 E2 F2 |[M:1/4] x2 |[M:4/4] x8 | x8 | x8 |[M:3/4] [CE]2 F2 E2 |[M:1/4] x2 | %16
[M:4/4] x8 | x8 | x8 |[M:3/4] E2 z2 z2 |[M:1/4] x2 |[M:4/4] x8 |[M:9/8] x9 |[M:4/4] x8 | %24
[M:25/32] x25/4 |[M:5/16] B3/4 z/4 z/ z |[M:4/4] z4 (5:4:5G2 e/ d/-d3/2c/ | %27
 (5:4:5z2 E/ E/-E3/2E/ z2 B2 | z4 (3:2:2A3 G3 | (3:2:2D2 D z2 z4 | z4 (5:4:5G2 e/ d/-d3/2c/ | %31
[M:3/4] (5:4:7z3/2 E3/4 E2- E/4E3/4 E2- E/4 |[M:1/4] x2 |[M:4/4] (3:2:2F3 e3 z4 | %34
 (3:2:2D2 D z2 z4 | (3:2:2z2 G z2 z4 |[M:35/32] E3/2-E/4 z/4 E3/2-E/4 z2 z/4 .e2 z3/4 | %37
[M:19/16] x19/2 |[M:7/8] [EG]2 A2 G3 |] %39
V:4
 x8 | x8 | x8 | x2[K:treble] x6 |[M:3/4] x6 |[M:1/4][K:bass] x2 |[M:4/4] x8 | x8 | z2 .G,2 z4 | %9
[M:3/4] B,,2- [B,,-G,]2 [B,,A,]2 |[M:1/4] x2 |[M:4/4] x8 | x8 | x8 |[M:3/4] C,6 |[M:1/4] x2 | %16
[M:4/4] x8 | x8 | x8 |[M:3/4] x6 |[M:1/4][K:treble] x2 |[M:4/4] x2[K:bass] x6 |[M:9/8] x9 | %23
[M:4/4] x8 |[M:25/32] x25/4 |[M:5/16] x5/2 |[M:4/4] z z/ [E,B,]/- [E,B,]/4 z/4 z/ z z4 | %27
 z z/ [E,G,]/- [E,G,]/4 z/4 z/ z G,2 z2 | z4 (3:2:2[F,B,D]3 [E,B,E]3 | x8 | %30
 z z/ [E,B,]/- [E,B,]/4 z/4 z/ z z4 |[M:3/4] z z/ [E,G,]/- [E,G,]/4 z/4 z/ z E,2 |[M:1/4] x2 | %33
[M:4/4] z4 (3:2:2[F,=A,F]3 [F,E]3 | %34
 (5:4:5[B,,F,]2 [B,,F,]/ [B,,G,]/-[B,,G,]3/2[B,,G,]/ z4[K:treble] | %35
 z4 (5:4:5[E,B,]2 [_D,B,]/ [C,A,]/-[C,A,]3/2[B,,G,]/ | %36
[M:35/32] A,,3/2-A,,/4 z/4 [A,C]3/2-[A,C]/4 z4 z |[M:19/16] x19/2 |[M:7/8] E,-E,-E,- E,- E,3 |] %39
V:5
 x8 | x8 | x8 | x8 |[M:3/4] x2[K:bass] x4 |[M:1/4][K:treble] x2 |[M:4/4] x8 | x8 | x8 |[M:3/4] x6 | %10
[M:1/4] x2 |[M:4/4] x8 | x8 | x8 |[M:3/4] x6 |[M:1/4] x2 |[M:4/4] x8 | x8 | x8 |[M:3/4] x6 | %20
[M:1/4] x2 |[M:4/4] x8 |[M:9/8] x9 |[M:4/4] x8 | %24
[M:25/32] [A,DF]-[A,DF]/4-[A,DF]-[A,DF]/4- [A,DF]3- [A,DF]3/4- | %25
[M:5/16] [A,DF]/4 z/4 c/-c-c/4 z/4 |[M:4/4] (5:4:5z2 G/ G/-G3/2G/ z4 | z4 E2- E/4 z/4 z/ z | x8 | %29
 x8 | (5:4:5z2 G/ G/-G3/2G/ z4 |[M:3/4] x6 |[M:1/4] x2 |[M:4/4] x8 | x8 | %35
 (9:8:8G2 G2 G/ G3/2[EG]/[EA]/-[EA]3/2[EB]/ | %36
[M:35/32] z3/2 E3/4 z z/4 (3:2:4E3/4-E/8E3/2-E/4-E z3/2 z/4 c3/4 |[M:19/16] x19/2 |[M:7/8] x7 |] %39

